X:1
T:Anvil Chorus (Il Trovatore)
C:Giuseppe Verdi
K:E
M:4/4
L:1/4
Q:1/4=132
% A section — vigorous, hammering character. Range E4–B4.
% Pickup (anacrusis): B4
B | E>F# G#>A | B2 B>A | G#>F# E2 | E3 B |
E>F# G#>A | B2 B>A | G#>F# E2 | E4 |
B>B B>B | B>B B>A | G#2 F#2 | E4 |]
